X:4525
T:Duke of York's March. BF13.050
M:4/4
Q:110
S:J.Lishman()MS,c1825,Lakes,Browne Coll.
R:March
O:England
A:Lakes
Z:vmp.Chris Partington
K:D
D2D>DF2F>F|AFAFD2A>A|dAdA dAFD|A2A>AA2z2|!
a3fd2d2|e2egf2a2|a3gfdgf|e2e>ee2z2::!
A2A>A Aefg|A2A>A Adfa|geee fddd|bagff2e2|!
d3f/-e/ dAB=c|=cBB4 ^c/d/e/f/|ggff eedd|e2e>ee2z2|!
D2D>DF2F>F|AFAFD2g2|faaf gedc|d2d>dd2:|]
